X: 2107
T: The Braes of Breadalbane
P: The Braes of Breadalbane
C:Traditional
R:Strathspey (8x32)
B:RSCDS 21-7
Z:Anselm Lingnau <anselm@strathspey.org>
M:C
L:1/8
K:Am
E|"Am"E<A AB c>B Ac|e2 c<A e2 c<A|"Am"E<A AB c>B Ac|\
  c>A "E7"B>^G "Am"A3|
  "Am"E<A AB c>B Ac|e2 c<A e2 c<A|"Am"E<A AB c>B Ac|\
  c>A "E7"B>^G "Am"A3||
G|"C"c<c cc "G"d<d dd|"C"e>fge "G"d>BAG| \
  "Am"c<c cc "Dm"d<d dd|"Am"e>d c>d "E7"[e2^G2] z|
  "C"c<c cc "G"d<d dd|"C"e>fge "G"d>BAG| \
  "Am"c<c cc "Dm"d<d df|"E7"[e^G][dF][cE][BD] "Am"[A2C2] A,|]
%%center Book21/2107-Braes_of_Breadalbane-AL.abc

%%sep 1 1 500
%%sep 1 1 500

